X:21202 
T:WITH ALL MY HEART 
B:DMI.0368
Z:Nordberg/Black
R:jig
N:Makes a great slide played at a faster speed (say 180)!
%Q:1/4=160
M:12/8
L:1/8
K:G
"D mix"
G|F2D DED F2D D2G|A2c BAG A3 A2G|
[1 F2D DED F2D D2F|G2B AGF G3 A2:|
[2 agf gfe fed cAF|G2B AGF G3 F2||
E|A2d d2e f2d cAG|A2c BAG A3 F2G|
[1 A2d d2e f2d cAF|G2B AGF G3 F2 :|
[2 agf gfe fed cAF|G2B AGE HD3|

%%%

